X:6
T:Macdonald's Air
R:Jig
O:England
M:6/8
A:Lancashire
B:Winder
K:D
e | fed dcB | AFA AFA | fed dag | fee e2d | \
fed dcB | AFA AFA | daf ede | fdd d2 :|*
|:A | FAd dfd | Ace ege | FAd dag | fee e2d | \
fed dcB | AFA AFA | daf ede | fdd d2 :|**
